X: 1
T: I Surrender All
T: Original Key (D)
M: 4/4
C: Original key is D
K: D
F2 F G2 F2 | E2> E2 F2 E2 | D2> D2 G2 F2 | E2 F2 D4 |
w: All to Je-sus I sur-ren-der All to Him I free-ly give
F2> F2 G2 F2 | E2> E2 F2 E2 | D2 D G2 F2 | E2 F2 D4 |
w: I will e-ver love and trust Him, In his pre-sence dai-ly live.
d2> c2 B2 A2 | G8 | c2> B2 A2 G2 | F8 |
w: I sur-ren-der all I sur-ren-der all
F2> G2 B2 A2 | d2> c2 c2 B2 | A2> G2 F2 E2 | D8 ||
w: All to thee, my bless-sed Sav-ior I sur-ren-der all

